X: 36020
T: Scaffie's Cairt, The
R: jig
M: 6/8
K: Amixolydian
|:cd|e2c ABA|aec A2c|dfd cec|BGB dcB|
e2c ABA|aec A2A|BGB edB|BAA A:|
|:zA|A2a aec|aec AEF|G2B BGB|ded BGB|
A2a aec|aec A2=c|BGB edB|BAA A:|

